build/img/curl-arrow-right.svg

<svg width="153" height="158" viewBox="0 0 153 158" fill="none" xmlns="http://www.w3.org/2000/svg">
<path d="M52.974 92.6009C61.357 102.038 73.4868 110.213 86.2972 110.357C89.6332 101.053 89.8022 89.9309 88.9285 80.8961C87.4634 65.7161 76.182 46.315 57.8452 50.4299C37.1889 55.0652 42.8106 81.1596 52.974 92.6009ZM82.5682 55.1087C94.5908 67.3272 97.2638 91.7866 90.8065 110.068C91.99 109.9 93.1755 109.684 94.3634 109.363C124.695 101.154 128.877 65.3977 129.888 39.3494C129.901 39.0321 129.985 38.7576 130.101 38.5067L129.729 37.9944C128.205 42.8879 126.096 47.3677 123.183 51.8316C121.733 54.0556 118.045 52.086 119.503 49.8506C123.014 44.4714 125.361 39.0435 126.829 32.7709C127.269 30.8941 129.603 30.8135 130.639 32.1948C136.155 39.5467 141.125 47.1693 145.621 55.1744C146.939 57.5188 143.598 59.5075 142.063 57.3174C139.295 53.3716 136.527 49.4235 133.76 45.4759C132.262 71.1236 126.85 100.129 100.712 111.473C97.0182 113.077 93.1212 113.931 89.1539 114.152C86.7076 119.518 83.3831 124.153 79.1715 127.489C53.4768 147.842 20.7937 127.949 7.00507 103.721C5.97069 101.906 8.63449 100.294 9.78441 102.047C24.1183 123.942 57.2977 145.811 80.1008 121.01C81.9676 118.981 83.4747 116.65 84.7079 114.13C63.9623 112.871 42.6973 95.3388 39.678 75.2182C35.7841 49.2837 64.6765 36.9219 82.5682 55.1087Z" fill="#8DD9E5"/>
<path d="M52.974 92.6009C61.357 102.038 73.4868 110.213 86.2972 110.357C89.6332 101.053 89.8022 89.9309 88.9285 80.8961C87.4634 65.7161 76.182 46.315 57.8452 50.4299C37.1889 55.0652 42.8106 81.1596 52.974 92.6009ZM82.5682 55.1087C94.5908 67.3272 97.2638 91.7866 90.8065 110.068C91.99 109.9 93.1755 109.684 94.3634 109.363C124.695 101.154 128.877 65.3977 129.888 39.3494C129.901 39.0321 129.985 38.7576 130.101 38.5067L129.729 37.9944C128.205 42.8879 126.096 47.3677 123.183 51.8316C121.733 54.0556 118.045 52.086 119.503 49.8506C123.014 44.4714 125.361 39.0435 126.829 32.7709C127.269 30.8941 129.603 30.8135 130.639 32.1948C136.155 39.5467 141.125 47.1693 145.621 55.1744C146.939 57.5188 143.598 59.5075 142.063 57.3174C139.295 53.3716 136.527 49.4235 133.76 45.4759C132.262 71.1236 126.85 100.129 100.712 111.473C97.0182 113.077 93.1212 113.931 89.1539 114.152C86.7076 119.518 83.3831 124.153 79.1715 127.489C53.4768 147.842 20.7937 127.949 7.00507 103.721C5.97069 101.906 8.63449 100.294 9.78441 102.047C24.1183 123.942 57.2977 145.811 80.1008 121.01C81.9676 118.981 83.4747 116.65 84.7079 114.13C63.9623 112.871 42.6973 95.3388 39.678 75.2182C35.7841 49.2837 64.6765 36.9219 82.5682 55.1087Z" fill="#5879E8"/>
</svg>

<svg width="153" height="158" fill="none" xmlns="http://www.w3.org/2000/svg"><path d="M52.974 92.6c8.383 9.438 20.513 17.613 33.323 17.757 3.336-9.304 3.505-20.426 2.632-29.46-1.466-15.18-12.747-34.582-31.084-30.467-20.656 4.635-15.034 30.73-4.871 42.17zm29.594-37.49c12.023 12.218 14.696 36.678 8.239 54.959a29.397 29.397 0 003.556-.705c30.332-8.209 34.514-43.965 35.525-70.014.013-.317.097-.591.213-.842l-.372-.513c-1.524 4.894-3.633 9.374-6.546 13.838-1.45 2.224-5.138.254-3.68-1.981 3.511-5.38 5.858-10.807 7.326-17.08.44-1.877 2.774-1.957 3.81-.576a207.33 207.33 0 0114.982 22.98c1.318 2.344-2.023 4.333-3.558 2.142-2.768-3.945-5.536-7.894-8.303-11.841-1.498 25.648-6.91 54.653-33.048 65.997-3.694 1.604-7.59 2.458-11.558 2.679-2.446 5.366-5.77 10.001-9.983 13.337-25.694 20.353-58.377.46-72.166-23.768-1.034-1.815 1.63-3.427 2.78-1.674 14.333 21.895 47.513 43.764 70.316 18.963 1.867-2.029 3.374-4.36 4.607-6.88-20.746-1.259-42.01-18.791-45.03-38.912-3.894-25.934 24.999-38.296 42.89-20.11z" fill="#8DD9E5"/><path d="M52.974 92.6c8.383 9.438 20.513 17.613 33.323 17.757 3.336-9.304 3.505-20.426 2.632-29.46-1.466-15.18-12.747-34.582-31.084-30.467-20.656 4.635-15.034 30.73-4.871 42.17zm29.594-37.49c12.023 12.218 14.696 36.678 8.239 54.959a29.397 29.397 0 003.556-.705c30.332-8.209 34.514-43.965 35.525-70.014.013-.317.097-.591.213-.842l-.372-.513c-1.524 4.894-3.633 9.374-6.546 13.838-1.45 2.224-5.138.254-3.68-1.981 3.511-5.38 5.858-10.807 7.326-17.08.44-1.877 2.774-1.957 3.81-.576a207.33 207.33 0 0114.982 22.98c1.318 2.344-2.023 4.333-3.558 2.142-2.768-3.945-5.536-7.894-8.303-11.841-1.498 25.648-6.91 54.653-33.048 65.997-3.694 1.604-7.59 2.458-11.558 2.679-2.446 5.366-5.77 10.001-9.983 13.337-25.694 20.353-58.377.46-72.166-23.768-1.034-1.815 1.63-3.427 2.78-1.674 14.333 21.895 47.513 43.764 70.316 18.963 1.867-2.029 3.374-4.36 4.607-6.88-20.746-1.259-42.01-18.791-45.03-38.912-3.894-25.934 24.999-38.296 42.89-20.11z" fill="#5879E8"/></svg>
